svgs/regular/square-dashed.svg

<svg xmlns="http://www.w3.org/2000/svg" viewBox="0 0 448 512"><!--! Font Awesome Pro 6.3.0 by @fontawesome - https://fontawesome.com License - https://fontawesome.com/license (Commercial License) Copyright 2023 Fonticons, Inc. --><path d="M88 32h16c13.3 0 24 10.7 24 24v0c0 13.3-10.7 24-24 24H88c-22.1 0-40 17.9-40 40v16c0 13.3-10.7 24-24 24v0c-13.3 0-24-10.7-24-24V120C0 71.4 39.4 32 88 32zM24 192v0c13.3 0 24 10.7 24 24v80c0 13.3-10.7 24-24 24v0c-13.3 0-24-10.7-24-24V216c0-13.3 10.7-24 24-24zm400 0v0c13.3 0 24 10.7 24 24v80c0 13.3-10.7 24-24 24v0c-13.3 0-24-10.7-24-24V216c0-13.3 10.7-24 24-24zm0-32v0c-13.3 0-24-10.7-24-24V120c0-22.1-17.9-40-40-40H344c-13.3 0-24-10.7-24-24v0c0-13.3 10.7-24 24-24h16c48.6 0 88 39.4 88 88v16c0 13.3-10.7 24-24 24zm24 216v16c0 48.6-39.4 88-88 88H344c-13.3 0-24-10.7-24-24v0c0-13.3 10.7-24 24-24h16c22.1 0 40-17.9 40-40V376c0-13.3 10.7-24 24-24v0c13.3 0 24 10.7 24 24zM48 376v16c0 22.1 17.9 40 40 40h16c13.3 0 24 10.7 24 24v0c0 13.3-10.7 24-24 24H88c-48.6 0-88-39.4-88-88V376c0-13.3 10.7-24 24-24v0c13.3 0 24 10.7 24 24zM184 480c-13.3 0-24-10.7-24-24v0c0-13.3 10.7-24 24-24h80c13.3 0 24 10.7 24 24v0c0 13.3-10.7 24-24 24H184zM160 56v0c0-13.3 10.7-24 24-24h80c13.3 0 24 10.7 24 24v0c0 13.3-10.7 24-24 24H184c-13.3 0-24-10.7-24-24z"/></svg>

<svg xmlns="http://www.w3.org/2000/svg" viewBox="0 0 448 512"><!--! Font Awesome Pro 6.2.0 by @fontawesome - https://fontawesome.com License - https://fontawesome.com/license (Commercial License) Copyright 2022 Fonticons, Inc. --><path d="M88 32H104C117.3 32 128 42.75 128 56C128 69.25 117.3 80 104 80H88C65.91 80 48 97.91 48 120V136C48 149.3 37.25 160 24 160C10.75 160 0 149.3 0 136V120C0 71.4 39.4 32 88 32zM48 216V296C48 309.3 37.25 320 24 320C10.75 320 0 309.3 0 296V216C0 202.7 10.75 192 24 192C37.25 192 48 202.7 48 216zM448 216V296C448 309.3 437.3 320 424 320C410.7 320 400 309.3 400 296V216C400 202.7 410.7 192 424 192C437.3 192 448 202.7 448 216zM400 136V120C400 97.91 382.1 80 360 80H344C330.7 80 320 69.25 320 56C320 42.75 330.7 32 344 32H360C408.6 32 448 71.4 448 120V136C448 149.3 437.3 160 424 160C410.7 160 400 149.3 400 136zM448 392C448 440.6 408.6 480 360 480H344C330.7 480 320 469.3 320 456C320 442.7 330.7 432 344 432H360C382.1 432 400 414.1 400 392V376C400 362.7 410.7 352 424 352C437.3 352 448 362.7 448 376V392zM48 392C48 414.1 65.91 432 88 432H104C117.3 432 128 442.7 128 456C128 469.3 117.3 480 104 480H88C39.4 480 0 440.6 0 392V376C0 362.7 10.75 352 24 352C37.25 352 48 362.7 48 376V392zM184 480C170.7 480 160 469.3 160 456C160 442.7 170.7 432 184 432H264C277.3 432 288 442.7 288 456C288 469.3 277.3 480 264 480H184zM184 32H264C277.3 32 288 42.75 288 56C288 69.25 277.3 80 264 80H184C170.7 80 160 69.25 160 56C160 42.75 170.7 32 184 32z"/></svg>
